docs/assets/images/components/progress-bar.svg

<?xml version="1.0" encoding="UTF-8"?>
<svg width="64px" height="64px" viewBox="0 0 64 64" version="1.1" xmlns="http://www.w3.org/2000/svg" xmlns:xlink="http://www.w3.org/1999/xlink">
    <!-- Generator: Sketch 49 (51002) - http://www.bohemiancoding.com/sketch -->
    <title>icon/component/progress-bar</title>
    <desc>Created with Sketch.</desc>
    <defs>
        <polygon id="path-1" points="16.4666667 0 25.5467333 0 25.5467333 10.13636 16.4666667 10.13636"></polygon>
    </defs>
    <g id="icon/component/progress-bar" stroke="none" stroke-width="1" fill="none" fill-rule="evenodd">
        <g id="Group" transform="translate(2.000000, 5.000000)">
            <g id="Page-1">
                <polygon id="Fill-1" fill="#CADEFF" points="39.598 32.1852 57.298 32.1852 57.298 2.5332 39.598 2.5332"></polygon>
                <g id="Group-23" transform="translate(0.000000, 0.939200)">
                    <g id="Group-2" transform="translate(17.000000, 41.000000)">
                        <path d="M3.49353333,5.0986 C3.19106667,5.0986 2.938,5.1688 2.7352,5.30833333 C2.5324,5.44786667 2.38073333,5.62033333 2.28193333,5.82313333 L2.28193333,6.50693333 C2.28193333,7.14306667 2.39113333,7.61366667 2.60953333,7.91873333 C2.8288,8.22293333 3.15033333,8.37546667 3.575,8.37546667 C3.75093333,8.37546667 3.913,8.33386667 4.06206667,8.25066667 C4.21113333,8.1666 4.34026667,8.05133333 4.4486,7.90486667 C4.55693333,7.7584 4.641,7.58593333 4.70253333,7.38746667 C4.7632,7.18813333 4.79353333,6.97146667 4.79353333,6.73746667 C4.79353333,6.4844 4.7606,6.25646667 4.6956,6.05366667 C4.6306,5.85 4.5396,5.67753333 4.42433333,5.5354 C4.30906667,5.39326667 4.173,5.28493333 4.01526667,5.2104 C3.85666667,5.13586667 3.68333333,5.0986 3.49353333,5.0986 Z M5.55186667,0 L5.55186667,1.794 L5.42966667,1.794 C5.0414,1.794 4.6748,1.84166667 4.32986667,1.937 C3.98406667,2.03146667 3.6764,2.17446667 3.40513333,2.36686667 C3.13473333,2.5584 2.90506667,2.79933333 2.71786667,3.08793333 C2.53153333,3.37653333 2.40326667,3.71713333 2.33566667,4.10973333 C2.5662,3.8844 2.84266667,3.70153333 3.16506667,3.562 C3.48746667,3.4216 3.86186667,3.3514 4.28566667,3.3514 C4.7372,3.3514 5.13673333,3.43893333 5.48426667,3.61226667 C5.8318,3.7856 6.12386667,4.02566667 6.36133333,4.32986667 C6.59793333,4.63493333 6.77733333,4.99286667 6.89953333,5.40366667 C7.02086667,5.8136 7.0824,6.25906667 7.0824,6.73746667 C7.0824,7.2202 6.9966,7.66826667 6.825,8.0808 C6.6534,8.4942 6.41506667,8.853 6.11086667,9.15806667 C5.8058,9.46226667 5.44266667,9.70233333 5.0206,9.87566667 C4.59766667,10.049 4.1366,10.1356667 3.63566667,10.1356667 C3.11653333,10.1356667 2.63466667,10.0472667 2.19006667,9.86873333 C1.74546667,9.6902 1.36066667,9.43106667 1.03566667,9.0896 C0.710666667,8.749 0.456733333,8.33213333 0.273866667,7.84073333 C0.091,7.34933333 0,6.7912 0,6.16806667 L0,5.3352 C0,4.771 0.0641333333,4.24926667 0.1924,3.76826667 C0.321533333,3.28726667 0.500933333,2.8496 0.7306,2.4544 C0.961133333,2.0592 1.23673333,1.70993333 1.5574,1.40486667 C1.87806667,1.10066667 2.22993333,0.844133333 2.613,0.637 C2.99693333,0.429 3.406,0.271266667 3.84193333,0.162933333 C4.27786667,0.0546 4.72593333,0 5.18613333,0 L5.55186667,0 Z" id="Fill-16" fill="#5590EB"></path>
                        <path d="M12.3907333,3.87313333 C12.3907333,3.48053333 12.3638667,3.14946667 12.3092667,2.8808 C12.2555333,2.613 12.1784,2.3946 12.0796,2.2282 C11.9799333,2.06093333 11.8594667,1.94133333 11.7173333,1.86853333 C11.5752,1.7966 11.4131333,1.7602 11.2328667,1.7602 C11.0526,1.7602 10.8914,1.7966 10.7484,1.86853333 C10.6062667,1.94133333 10.4875333,2.06093333 10.3896,2.2282 C10.2925333,2.3946 10.218,2.613 10.1668667,2.8808 C10.1148667,3.14946667 10.0888667,3.48053333 10.0888667,3.87313333 L10.0888667,6.2426 C10.0888667,6.64473333 10.1148667,6.981 10.1668667,7.2514 C10.218,7.52266667 10.2942667,7.7402 10.3930667,7.90486667 C10.4927333,8.0704 10.6140667,8.18826667 10.7588,8.2602 C10.9035333,8.333 11.0664667,8.36853333 11.2467333,8.36853333 C11.4226667,8.36853333 11.5812667,8.333 11.7234,8.2602 C11.8664,8.18826667 11.9868667,8.0704 12.0856667,7.90486667 C12.1853333,7.7402 12.2616,7.52266667 12.3127333,7.2514 C12.3647333,6.981 12.3907333,6.64473333 12.3907333,6.2426 L12.3907333,3.87313333 Z M14.6726667,5.96526667 C14.6726667,6.67853333 14.5886,7.2956 14.4222,7.81733333 C14.2549333,8.3382 14.0200667,8.77066667 13.7176,9.11386667 C13.416,9.4562 13.0546,9.71186667 12.6342667,9.87913333 C12.2148,10.0455333 11.752,10.1296 11.2467333,10.1296 C10.7362667,10.1296 10.2708667,10.0455333 9.84793333,9.87913333 C9.42586667,9.71186667 9.0636,9.4562 8.762,9.11386667 C8.45953333,8.77066667 8.22293333,8.3382 8.05393333,7.81733333 C7.88493333,7.2956 7.8,6.67853333 7.8,5.96526667 L7.8,4.16433333 C7.8,3.45626667 7.88406667,2.84006667 8.05046667,2.31573333 C8.21773333,1.79226667 8.4526,1.35893333 8.75506667,1.01573333 C9.05666667,0.6734 9.41806667,0.417733333 9.8384,0.250466667 C10.2578667,0.0840666667 10.7224,0 11.2328667,0 C11.7381333,0 12.2018,0.0840666667 12.6247333,0.250466667 C13.0468,0.417733333 13.4090667,0.6734 13.7106667,1.01573333 C14.0131333,1.35893333 14.2497333,1.79226667 14.4187333,2.31573333 C14.5877333,2.84006667 14.6726667,3.45626667 14.6726667,4.16433333 L14.6726667,5.96526667 Z" id="Fill-18" fill="#5590EB"></path>
                        <mask id="mask-2" fill="white">
                            <use xlink:href="#path-1"></use>
                        </mask>
                        <g id="Clip-21"></g>
                        <path d="M22.6148,8.10506667 C22.6148,8.20906667 22.6338667,8.30873333 22.672,8.40666667 C22.7101333,8.50373333 22.7638667,8.58953333 22.8314667,8.66406667 C22.8990667,8.73773333 22.9779333,8.79666667 23.0680667,8.84 C23.1590667,8.88246667 23.2552667,8.90413333 23.3592667,8.90413333 C23.5126667,8.90413333 23.6374667,8.88246667 23.7319333,8.84 C23.8264,8.79666667 23.9000667,8.73773333 23.9520667,8.66406667 C24.0040667,8.58953333 24.0378667,8.50373333 24.0534667,8.40666667 C24.0699333,8.30873333 24.0768667,8.20906667 24.0768667,8.10506667 L24.0768667,7.58333333 C24.0768667,7.47933333 24.063,7.37966667 24.0335333,7.2826 C24.0040667,7.18466667 23.959,7.09973333 23.8974667,7.0252 C23.8368,6.95066667 23.7596667,6.8926 23.6678,6.84926667 C23.5750667,6.80593333 23.4676,6.78513333 23.3462667,6.78513333 C23.2240667,6.78513333 23.1166,6.80593333 23.0247333,6.84926667 C22.932,6.8926 22.8548667,6.95066667 22.7942,7.0252 C22.7335333,7.09973333 22.6884667,7.18466667 22.659,7.2826 C22.6295333,7.37966667 22.6148,7.47933333 22.6148,7.58333333 L22.6148,8.10506667 Z M21.1527333,7.58333333 C21.1527333,7.3086 21.1986667,7.046 21.2914,6.79813333 C21.3832667,6.55026667 21.5210667,6.33446667 21.7039333,6.1516 C21.8868,5.96873333 22.1164667,5.82313333 22.3912,5.7148 C22.6668,5.60646667 22.9848667,5.55273333 23.3462667,5.55273333 C23.7163333,5.55273333 24.0404667,5.60646667 24.3178,5.7148 C24.5951333,5.82313333 24.8248,5.96873333 25.0050667,6.1516 C25.1853333,6.33446667 25.3205333,6.55026667 25.4115333,6.79813333 C25.5016667,7.046 25.5467333,7.3086 25.5467333,7.58333333 L25.5467333,8.10506667 C25.5467333,8.385 25.5016667,8.6476 25.4115333,8.89373333 C25.3205333,9.13986667 25.1853333,9.35393333 25.0050667,9.5368 C24.8248,9.71966667 24.5977333,9.86526667 24.3247333,9.9736 C24.0508667,10.0819333 23.7293333,10.1365333 23.3592667,10.1365333 C22.9935333,10.1365333 22.6728667,10.0819333 22.3981333,9.9736 C22.1234,9.86526667 21.8928667,9.71966667 21.7074,9.5368 C21.5219333,9.35393333 21.3832667,9.13986667 21.2914,8.89373333 C21.1986667,8.6476 21.1527333,8.385 21.1527333,8.10506667 L21.1527333,7.58333333 Z M19.1074,9.26293333 L18.0448667,8.7282 L22.8583333,1.02266667 L23.9217333,1.5574 L19.1074,9.26293333 Z M17.9365333,2.56013333 C17.9365333,2.66413333 17.9504,2.76293333 17.9798667,2.8574 C18.0102,2.95273333 18.0544,3.0368 18.1159333,3.11133333 C18.1766,3.18586667 18.2537333,3.2448 18.3456,3.28726667 C18.4383333,3.3306 18.5484,3.35226667 18.6740667,3.35226667 C18.7962667,3.35226667 18.902,3.3306 18.9921333,3.28726667 C19.0831333,3.2448 19.1559333,3.18586667 19.2122667,3.11133333 C19.2694667,3.0368 19.3110667,2.95273333 19.3414,2.8574 C19.3708667,2.76293333 19.3847333,2.66413333 19.3847333,2.56013333 L19.3847333,2.0384 C19.3847333,1.93006667 19.3708667,1.8278 19.3414,1.73073333 C19.3110667,1.6328 19.2677333,1.54786667 19.2088,1.47333333 C19.1507333,1.3988 19.0744667,1.33986667 18.9826,1.2974 C18.8898667,1.25406667 18.7824,1.2324 18.6610667,1.2324 C18.5388667,1.2324 18.4331333,1.25406667 18.3421333,1.2974 C18.252,1.33986667 18.1766,1.3988 18.1159333,1.47333333 C18.0544,1.54786667 18.0102,1.6328 17.9798667,1.73073333 C17.9504,1.8278 17.9365333,1.93006667 17.9365333,2.0384 L17.9365333,2.56013333 Z M16.4666667,2.0384 C16.4666667,1.75846667 16.5134667,1.49586667 16.6053333,1.24973333 C16.6980667,1.0036 16.8358667,0.788666667 17.0187333,0.6032 C17.2016,0.417733333 17.4312667,0.271266667 17.706,0.162933333 C17.9807333,0.0546 18.2996667,0 18.6610667,0 C19.0302667,0 19.3535333,0.0546 19.6291333,0.162933333 C19.9038667,0.271266667 20.1326667,0.417733333 20.3129333,0.6032 C20.4932,0.788666667 20.6284,1.0036 20.7185333,1.24973333 C20.8095333,1.49586667 20.8546,1.75846667 20.8546,2.0384 L20.8546,2.56013333 C20.8546,2.83486667 20.8095333,3.09573333 20.7185333,3.34186667 C20.6284,3.588 20.4932,3.80206667 20.3129333,3.98493333 C20.1326667,4.1678 19.9056,4.3134 19.6326,4.42173333 C19.3587333,4.53006667 19.0398,4.58466667 18.6740667,4.58466667 C18.3083333,4.58466667 17.9876667,4.53006667 17.7129333,4.42173333 C17.4373333,4.3134 17.2076667,4.1678 17.0222,3.98493333 C16.8367333,3.80206667 16.6980667,3.588 16.6053333,3.34186667 C16.5134667,3.09573333 16.4666667,2.83486667 16.4666667,2.56013333 L16.4666667,2.0384 Z" id="Fill-20" fill="#5590EB" mask="url(#mask-2)"></path>
                    </g>
                    <polygon id="Fill-2" fill="#FFFFFF" points="42.589 31.246 57.297 31.246 57.297 1.594 42.589 1.594"></polygon>
                    <path d="M38.843,31.9997 L1.755,31.9997 C1.338,31.9997 1,31.6617 1,31.2457 L1,2.3487 C1,1.9317 1.338,1.5937 1.755,1.5937 L38.843,1.5937 C39.26,1.5937 39.598,1.9317 39.598,2.3487 L39.598,31.2457 C39.598,31.6617 39.26,31.9997 38.843,31.9997" id="Fill-4" fill="#97BDFF"></path>
                    <polygon id="Fill-6" fill="#6DA3F2" points="33.5779 2.0876 21.0299 32.7196 14.5409 32.7196 27.4589 1.7186"></polygon>
                    <polygon id="Fill-8" fill="#6DA3F2" points="39.9309 31.2458 39.9309 31.2458 32.9589 32.7198 40.4219 15.0998"></polygon>
                    <polygon id="Fill-10" fill="#6DA3F2" points="15.863 2.0876 3.315 32.7196 1.125 31.7616 1.187 22.4706 9.743 1.7186"></polygon>
                    <path d="M57.2166,30.9997 L57.2166,2.5937 L2.0006,2.5937 L2.0006,30.9997 L57.2166,30.9997 Z M57.2976,32.9997 L1.9186,32.9997 C0.85931525,32.9997 0.0006,32.1409847 0.0006,31.0817 L0.0006,2.5127 C0.0006,1.45273818 0.858992292,0.5937 1.9186,0.5937 L57.2976,0.5937 C58.3578847,0.5937 59.2166,1.45241525 59.2166,2.5127 L59.2166,31.0817 C59.2166,32.1413077 58.3575618,32.9997 57.2976,32.9997 Z" id="Stroke-12" fill="#457AE6" fill-rule="nonzero"></path>
                    <polygon id="Stroke-14" fill="#457AE6" fill-rule="nonzero" points="40.6574 32.2165 38.6574 32.2165 38.6574 1.3775 40.6574 1.3775"></polygon>
                    <g id="Group-22" transform="translate(36.000000, 40.000000)"></g>
                </g>
            </g>
        </g>
    </g>
</svg>

<svg width="64" height="64" xmlns="http://www.w3.org/2000/svg" xmlns:xlink="http://www.w3.org/1999/xlink"><defs><path id="a" d="M16.467 0h9.08v10.136h-9.08z"/></defs><g fill="none" fill-rule="evenodd"><path fill="#CADEFF" d="M41.598 37.185h17.7V7.533h-17.7z"/><g transform="translate(19 46.94)"><path d="M3.494 5.099c-.303 0-.556.07-.759.21a1.33 1.33 0 0 0-.453.514v.684c0 .636.11 1.107.328 1.412.219.304.54.456.965.456a.982.982 0 0 0 .487-.124c.15-.084.278-.2.387-.346.108-.147.192-.32.254-.518.06-.199.09-.416.09-.65 0-.253-.032-.48-.097-.683a1.572 1.572 0 0 0-.272-.519 1.161 1.161 0 0 0-.93-.436zM5.552 0v1.794H5.43c-.389 0-.755.048-1.1.143a2.905 2.905 0 0 0-.925.43c-.27.191-.5.432-.687.72a2.71 2.71 0 0 0-.382 1.023c.23-.226.507-.408.83-.548.321-.14.696-.21 1.12-.21.451 0 .85.087 1.198.26.348.174.64.414.877.718.237.305.416.663.539 1.074.12.41.182.855.182 1.333 0 .483-.085.931-.257 1.344a3.3 3.3 0 0 1-.714 1.077 3.302 3.302 0 0 1-1.09.718c-.423.173-.884.26-1.385.26-.52 0-1.001-.089-1.446-.267a3.24 3.24 0 0 1-1.154-.78 3.604 3.604 0 0 1-.762-1.248C.09 7.349 0 6.79 0 6.168v-.833c0-.564.064-1.086.192-1.567.13-.48.309-.918.539-1.314.23-.395.506-.744.826-1.05.321-.303.673-.56 1.056-.767A5.198 5.198 0 0 1 3.842.163 5.553 5.553 0 0 1 5.186 0h.366zM12.39 3.873a5.09 5.09 0 0 0-.08-.992 2.093 2.093 0 0 0-.23-.653.912.912 0 0 0-.363-.36 1.06 1.06 0 0 0-.484-.108c-.18 0-.342.037-.485.109a.894.894 0 0 0-.358.36 2.078 2.078 0 0 0-.223.652c-.052.268-.078.6-.078.992v2.37c0 .402.026.738.078 1.008.051.272.127.49.226.654.1.165.221.283.366.355.145.073.307.109.488.109.176 0 .334-.036.476-.109a.894.894 0 0 0 .363-.355c.1-.165.176-.382.227-.654.052-.27.078-.606.078-1.008v-2.37zm2.283 2.092c0 .714-.084 1.33-.25 1.852-.168.521-.403.954-.705 1.297a2.812 2.812 0 0 1-1.084.765c-.42.167-.882.25-1.387.25-.51 0-.976-.083-1.4-.25a2.808 2.808 0 0 1-1.085-.765c-.302-.343-.54-.776-.708-1.297-.17-.521-.254-1.138-.254-1.852v-1.8c0-.709.084-1.325.25-1.85.168-.523.403-.956.705-1.3A2.812 2.812 0 0 1 9.838.25 3.75 3.75 0 0 1 11.233 0c.505 0 .969.084 1.392.25.422.168.784.423 1.086.766.302.343.539.776.708 1.3.169.524.254 1.14.254 1.848v1.801z" fill="#5590EB"/><mask id="b" fill="#fff"><use xlink:href="#a"/></mask><path d="M22.615 8.105a.821.821 0 0 0 .453.735.678.678 0 0 0 .291.064.92.92 0 0 0 .373-.064.536.536 0 0 0 .321-.433 1.81 1.81 0 0 0 .024-.302v-.522c0-.104-.014-.203-.043-.3a.726.726 0 0 0-.137-.258.646.646 0 0 0-.23-.176.753.753 0 0 0-.32-.064c-.123 0-.23.02-.322.064a.642.642 0 0 0-.23.176.739.739 0 0 0-.136.258c-.03.097-.044.196-.044.3v.522zm-1.462-.522c0-.274.046-.537.138-.785.092-.248.23-.464.413-.646a1.99 1.99 0 0 1 .687-.437c.276-.109.594-.162.955-.162.37 0 .694.053.972.162.277.108.507.254.687.437.18.182.316.398.407.646.09.248.135.51.135.785v.522c0 .28-.045.543-.135.789-.091.246-.227.46-.407.643a1.95 1.95 0 0 1-.68.437 2.616 2.616 0 0 1-.966.163c-.365 0-.686-.055-.96-.163a2.03 2.03 0 0 1-.692-.437 1.752 1.752 0 0 1-.416-.643 2.217 2.217 0 0 1-.138-.789v-.522zm-2.046 1.68l-1.062-.535 4.813-7.705 1.064.534-4.815 7.706zm-1.17-6.703a.99.99 0 0 0 .043.297c.03.096.074.18.136.254.06.075.138.134.23.176a.771.771 0 0 0 .328.065.726.726 0 0 0 .318-.065.575.575 0 0 0 .22-.176.817.817 0 0 0 .13-.254.99.99 0 0 0 .043-.297v-.522c0-.108-.014-.21-.044-.307a.78.78 0 0 0-.132-.258.603.603 0 0 0-.226-.176.753.753 0 0 0-.322-.065.733.733 0 0 0-.319.065.639.639 0 0 0-.226.176.74.74 0 0 0-.136.258c-.03.097-.043.2-.043.307v.522zm-1.47-.522c0-.28.046-.542.138-.788.093-.246.23-.461.414-.647.183-.185.412-.332.687-.44.275-.108.594-.163.955-.163.37 0 .693.055.968.163.275.108.504.255.684.44.18.186.315.4.406.647.09.246.136.508.136.788v.522c0 .275-.045.536-.136.782-.09.246-.226.46-.406.643a1.95 1.95 0 0 1-.68.437 2.594 2.594 0 0 1-.959.163c-.366 0-.686-.055-.961-.163a2.021 2.021 0 0 1-.69-.437 1.765 1.765 0 0 1-.418-.643 2.219 2.219 0 0 1-.138-.782v-.522z" fill="#5590EB" mask="url(#b)"/></g><path fill="#FFF" d="M44.589 37.185h14.708V7.533H44.589z"/><path d="M40.843 37.939H3.755A.755.755 0 0 1 3 37.185V8.288c0-.417.338-.755.755-.755h37.088c.417 0 .755.338.755.755v28.897a.755.755 0 0 1-.755.754" fill="#97BDFF"/><path fill="#6DA3F2" d="M35.578 8.027L23.03 38.659h-6.49L29.46 7.658zM41.93 37.185l-6.971 1.474 7.463-17.62zM17.863 8.027L5.315 38.659l-2.19-.958.062-9.291 8.556-20.752z"/><path d="M59.217 36.939V8.533H4v28.406h55.216zm.08 2H3.92A1.918 1.918 0 0 1 2 37.02V8.45c0-1.06.858-1.918 1.918-1.918h55.379c1.06 0 1.919.859 1.919 1.919V37.02c0 1.06-.86 1.918-1.92 1.918z" fill="#457AE6" fill-rule="nonzero"/><path fill="#457AE6" fill-rule="nonzero" d="M42.657 38.156h-2V7.316h2z"/></g></svg>
